fs/dumbbell_28_regular.svg

<svg viewBox="0 0 28 28" fill="none" xmlns="http://www.w3.org/2000/svg" height="1em" width="1em">
  <path d="M20.8986 10.07C21.1915 9.7771 21.1915 9.30223 20.8986 9.00934L18.9894 7.10011C18.6965 6.80721 18.2216 6.80722 17.9287 7.10011C17.6358 7.393 17.6358 7.86788 17.9287 8.16077L19.838 10.07C20.1309 10.3629 20.6057 10.3629 20.8986 10.07ZM10.716 19.1919C11.0089 19.4848 11.0089 19.9596 10.716 20.2525C10.4231 20.5454 9.94824 20.5454 9.65535 20.2525L7.74612 18.3433C7.45323 18.0504 7.45323 17.5755 7.74612 17.2826C8.03901 16.9898 8.51389 16.9898 8.80678 17.2826L10.716 19.1919ZM24.7553 3.27097C23.8967 2.41228 22.5044 2.41228 21.6458 3.27097L20.748 4.16877L20.381 3.80183C19.2983 2.7191 17.5428 2.7191 16.4601 3.80182C16.3453 3.91661 16.2426 4.03921 16.1519 4.16795C15.0893 3.91281 13.9225 4.19929 13.0922 5.02963L12.8675 5.25435C11.5983 6.52355 11.5983 8.58134 12.8675 9.85054L13.9668 10.9499L10.9484 13.9683L9.84919 12.869C8.57999 11.5998 6.5222 11.5998 5.253 12.869L5.02827 13.0937C4.19797 13.924 3.91148 15.0907 4.16657 16.1533C4.0378 16.244 3.91519 16.3468 3.80039 16.4616C2.71766 17.5443 2.71766 19.2997 3.80039 20.3825L4.16733 20.7494L3.24363 21.6731C2.38494 22.5318 2.38494 23.924 3.24363 24.7827C4.10232 25.6414 5.49453 25.6414 6.35322 24.7827L7.27693 23.859L7.6437 24.2258C8.72643 25.3085 10.4819 25.3085 11.5646 24.2258C11.6794 24.111 11.7821 23.9884 11.8728 23.8596C12.9354 24.1148 14.1022 23.8283 14.9325 22.998L15.1572 22.7732C16.4264 21.504 16.4264 19.4463 15.1572 18.1771L14.058 17.0779L17.0764 14.0595L18.1755 15.1586C19.4447 16.4278 21.5025 16.4278 22.7717 15.1586L22.9964 14.9338C23.8267 14.1036 24.1132 12.9369 23.8581 11.8743C23.9869 11.7836 24.1095 11.6808 24.2243 11.566C25.3071 10.4833 25.3071 8.72786 24.2243 7.64513L23.8576 7.27836L24.7554 6.38057C25.614 5.52188 25.614 4.12966 24.7553 3.27097ZM12.9974 16.0172L12.0091 15.0289L15.0275 12.0106L16.0158 12.9988L12.9974 16.0172ZM6.21627 22.7983L5.29256 23.722C5.01966 23.9949 4.57719 23.9949 4.30429 23.722C4.03138 23.4491 4.03138 23.0067 4.30429 22.7338L5.22799 21.8101L6.21627 22.7983ZM22.7969 6.2177L21.8086 5.22942L22.7064 4.33163C22.9793 4.05873 23.4218 4.05873 23.6947 4.33163C23.9676 4.60454 23.9676 5.047 23.6947 5.31991L22.7969 6.2177ZM17.5208 4.86248C18.0177 4.36555 18.8234 4.36555 19.3204 4.86249L23.1637 8.70579C23.6606 9.20273 23.6606 10.0084 23.1637 10.5054C23.023 10.646 22.8595 10.7458 22.6858 10.8066C22.4822 10.8778 22.3192 11.0333 22.2383 11.2332C22.1574 11.4331 22.1665 11.6581 22.2632 11.8509C22.5927 12.5074 22.4822 13.3268 21.9358 13.8732L21.7111 14.0979C21.0276 14.7813 19.9196 14.7813 19.2362 14.0979L13.9281 8.78988C13.2447 8.10646 13.2447 6.99843 13.9281 6.31501L14.1529 6.09029C14.6993 5.54389 15.5187 5.43339 16.1753 5.76289C16.368 5.85962 16.5931 5.86871 16.793 5.78782C16.9929 5.70694 17.1483 5.54391 17.2196 5.34036C17.2804 5.16668 17.3802 5.00311 17.5208 4.86248ZM8.78853 13.9297L14.0966 19.2377C14.78 19.9211 14.78 21.0292 14.0966 21.7126L13.8718 21.9373C13.3254 22.4837 12.506 22.5942 11.8495 22.2647C11.6567 22.168 11.4317 22.1589 11.2317 22.2398C11.0318 22.3207 10.8764 22.4837 10.8052 22.6872C10.7444 22.8609 10.6446 23.0245 10.5039 23.1651C10.007 23.6621 9.2013 23.6621 8.70436 23.1651L4.86105 19.3218C4.36411 18.8249 4.36411 18.0192 4.86105 17.5222C5.00168 17.3816 5.16525 17.2818 5.33894 17.221C5.54248 17.1498 5.70551 16.9943 5.7864 16.7944C5.86729 16.5945 5.85822 16.3695 5.76149 16.1767C5.43204 15.5202 5.54255 14.7008 6.08893 14.1544L6.31365 13.9297C6.99707 13.2463 8.10511 13.2463 8.78853 13.9297Z" fill="#212121"/>
</svg>

<svg viewBox="0 0 28 28" fill="none" xmlns="http://www.w3.org/2000/svg" height="1em" width="1em">
  <path d="M20.899 10.07a.75.75 0 0 0 0-1.06l-1.91-1.91a.75.75 0 0 0-1.06 1.06l1.909 1.91a.75.75 0 0 0 1.06 0Zm-10.183 9.122a.75.75 0 1 1-1.06 1.06l-1.91-1.909a.75.75 0 0 1 1.06-1.06l1.91 1.909ZM24.756 3.27a2.199 2.199 0 0 0-3.11 0l-.898.898-.367-.367a2.772 2.772 0 0 0-4.23.366 3.247 3.247 0 0 0-3.059.862l-.225.224a3.25 3.25 0 0 0 0 4.597l1.1 1.099-3.019 3.018L9.85 12.87a3.25 3.25 0 0 0-4.596 0l-.225.225a3.247 3.247 0 0 0-.861 3.06 2.772 2.772 0 0 0-.366 4.23l.366.365-.923.924a2.199 2.199 0 0 0 3.11 3.11l.923-.924.367.367a2.773 2.773 0 0 0 4.229-.366 3.247 3.247 0 0 0 3.06-.862l.224-.225a3.25 3.25 0 0 0 0-4.596l-1.099-1.1 3.018-3.018 1.1 1.1a3.25 3.25 0 0 0 4.596 0l.224-.225a3.247 3.247 0 0 0 .862-3.06 2.772 2.772 0 0 0 .366-4.23l-.366-.366.897-.897a2.199 2.199 0 0 0 0-3.11Zm-11.76 12.747-.988-.988 3.018-3.018.989.988-3.019 3.018Zm-6.78 6.781-.924.924a.699.699 0 0 1-.989-.988l.924-.924.988.988Zm16.58-16.58-.988-.989.897-.897a.699.699 0 0 1 .989.988l-.898.898ZM17.52 4.862a1.273 1.273 0 0 1 1.8 0l3.843 3.844a1.273 1.273 0 0 1-.478 2.1.75.75 0 0 0-.423 1.045 1.75 1.75 0 0 1-.327 2.022l-.225.225a1.75 1.75 0 0 1-2.475 0L13.928 8.79a1.75 1.75 0 0 1 0-2.475l.225-.225a1.751 1.751 0 0 1 2.022-.327.75.75 0 0 0 1.045-.423c.06-.173.16-.337.3-.478ZM8.789 13.93l5.308 5.308a1.75 1.75 0 0 1 0 2.475l-.225.224a1.75 1.75 0 0 1-2.022.328.75.75 0 0 0-1.045.422 1.272 1.272 0 0 1-2.1.478L4.86 19.322a1.273 1.273 0 0 1 .478-2.101.75.75 0 0 0 .422-1.044 1.751 1.751 0 0 1 .328-2.023l.225-.224a1.75 1.75 0 0 1 2.475 0Z" fill="#212121"/>
</svg>
